X: 1
T: It Came Upon the Midnight Clear [Bb]
Z: John Chambers <jc:trillian.mit.edu>
R: waltz, jig
M: 6/8
L: 1/8
K: Bb
F \
| "Bb"d2A "Eb"cBG | "Bb"F2G F2F \
| "Eb"GAB "C7"Bcd | "F"c3- c2F \
| "Bb"d2A "Eb"cBG | "Bb"F2G F2F \
| "Eb"G2G "F7"AGF | "Bb"B3- B2d |
| "D7"d2D D=E^F | "Gm"G2A B2d \
| "F"cBA "C7"GAG | "F"F3- "F7"F2F \
| "Bb"d2A "Eb"cBG | "Bb"F2G F2F \
| "Eb"G2G "F7"AGF | "Bb"B3- B2 |]

